src/assets/cards/8C.svg

<svg clip-rule="evenodd" fill-rule="evenodd" stroke-linejoin="round" stroke-miterlimit="2" viewBox="0 0 934 1300" xmlns="http://www.w3.org/2000/svg"><g fill-rule="nonzero"><path d="m32.513 156.849c.664-18.227 7.376-25.076 20.597-34.61-10.537-7.489-14.99-18.49-14.087-27.873 2.17-22.692 20.046-34.045 39.514-33.556 19.482.502 36.278 15.681 37.583 32.176 1.142 14.351-3.211 21.263-13.573 28.814 12.306 10.174 20.171 16.872 19.87 34.836-.301 17.963-15.856 39.339-42.976 39.991-27.121.652-47.593-21.539-46.928-39.778zm75.717.063c1.166-16.509-13.699-27.648-30.47-27.811-16.345-.175-30.96 13.523-30.96 28.338 0 15.931 19.005 24.574 31.298 24.624 14.915.05 29.128-10.926 30.132-25.151zm-5.357-59.059c.314-13.899-12.745-23.871-26.205-23.47-11.979.364-24.674 9.346-24.687 20.962 0 14.551 14.426 21.801 26.745 22.077 11.164.251 23.896-9.057 24.147-19.569z"/><path d="m902.468 1143.15c-.664 18.23-7.376 25.08-20.597 34.62 10.537 7.48 14.99 18.49 14.087 27.86-2.17 22.7-20.033 34.05-39.514 33.56-19.482-.5-36.278-15.68-37.583-32.17-1.142-14.35 3.211-21.26 13.573-28.82-12.306-10.17-20.171-16.87-19.87-34.83s15.856-39.33 42.976-39.99c27.121-.66 47.593 21.54 46.928 39.77zm-75.717-.06c-1.166 16.51 13.699 27.65 30.47 27.82 16.345.17 30.96-13.53 30.96-28.35 0-15.92-19.018-24.57-31.298-24.62-14.915-.05-29.141 10.93-30.132 25.15zm5.357 59.05c-.314 13.91 12.745 23.88 26.205 23.48 11.979-.36 24.674-9.34 24.674-20.97.025-14.54-14.426-21.8-26.732-22.07-11.164-.25-23.896 9.06-24.147 19.56z"/><path d="m651.75 354.779c11.958-24.066 20.708-48.754 22.25-75.158 1.417-9.713-4.458-9.875-5.333-3.033-17 64.97-107.375 47.375-104.25-13.738 2.5-49.558 51.75-60.221 77.416-44.017 10.125 5.971 9.584 2.392 4.042-3.8-38.167-42.545-15.042-97.341 36.5-98.341 55.75 3.304 70.208 61.958 36 96.45-4.25 4.146-13.667 17.462.542 8.15 34.5-24.534 82.416 1.846 81.458 39.671-1.792 69.745-86.833 74.945-105 16.691-1.75-6.458-6.792-9.704-5.417 1.267 2.542 19.862 7.75 49.804 22.667 75.858z"/><path d="m651.75 772.479c11.958-24.062 20.708-48.754 22.25-75.154 1.417-9.717-4.458-9.879-5.333-3.038-17 64.971-107.375 47.38-104.25-13.733 2.5-49.562 51.75-60.225 77.416-44.021 10.125 5.971 9.584 2.396 4.042-3.8-38.167-42.546-15.042-97.337 36.5-98.341 55.75 3.304 70.208 61.958 36 96.45-4.25 4.145-13.667 17.466.542 8.154 34.5-24.534 82.416 1.841 81.458 39.666-1.792 69.746-86.833 74.95-105 16.692-1.75-6.458-6.792-9.7-5.417 1.267 2.542 19.862 7.75 49.808 22.667 75.858z"/><path d="m220.333 772.479c12-24.062 20.75-48.754 22.292-75.154 1.417-9.717-4.458-9.879-5.375-3.038-16.958 64.971-107.333 47.38-104.208-13.733 2.5-49.562 51.708-60.225 77.416-44.021 10.125 5.971 9.542 2.396 4.042-3.8-38.167-42.546-15.083-97.337 36.5-98.341 55.75 3.304 70.208 61.958 36 96.45-4.25 4.145-13.667 17.466.5 8.154 34.542-24.534 82.458 1.841 81.5 39.666-1.833 69.746-86.833 74.95-105.042 16.692-1.75-6.458-6.791-9.7-5.375 1.267 2.5 19.862 7.75 49.808 22.667 75.858z"/><path d="m429.417 563.629c12-24.066 20.75-48.754 22.291-75.154 1.459-9.717-4.458-9.879-5.333-3.037-17 64.97-107.375 47.375-104.25-13.734 2.5-49.562 51.75-60.225 77.417-44.021 10.125 5.971 9.583 2.396 4.041-3.8-38.166-42.546-15.041-97.341 36.5-98.341 55.75 3.304 70.209 61.958 36 96.45-4.25 4.145-13.666 17.462.542 8.15 34.5-24.534 82.417 1.845 81.458 39.67-1.791 69.746-86.833 74.946-105 16.692-1.75-6.458-6.791-9.704-5.416 1.267 2.541 19.862 7.75 49.808 22.666 75.858z"/><path d="m220.333 354.779c12-24.066 20.75-48.754 22.292-75.158 1.417-9.713-4.458-9.875-5.375-3.033-16.958 64.97-107.333 47.375-104.208-13.738 2.5-49.558 51.708-60.221 77.416-44.017 10.125 5.971 9.542 2.392 4.042-3.8-38.167-42.545-15.083-97.341 36.5-98.341 55.75 3.304 70.208 61.958 36 96.45-4.25 4.146-13.667 17.462.5 8.15 34.542-24.534 82.458 1.846 81.5 39.671-1.833 69.745-86.833 74.945-105.042 16.691-1.75-6.458-6.791-9.704-5.375 1.267 2.5 19.862 7.75 49.804 22.667 75.858z"/><path d="m713 945.221c-12 24.062-20.75 48.754-22.292 75.159-1.416 9.71 4.459 9.87 5.375 3.03 16.959-64.968 107.334-47.377 104.209 13.74-2.5 49.56-51.709 60.22-77.417 44.02-10.125-5.97-9.542-2.4-4.042 3.79 38.167 42.55 15.042 97.34-36.5 98.35-55.75-3.31-70.208-61.96-36-96.46 4.25-4.14 13.667-17.46-.5-8.15-34.541 24.54-82.458-1.84-81.5-39.67 1.834-69.742 86.834-74.942 105.042-16.68 1.75 6.45 6.75 9.7 5.375-1.27-2.5-19.86-7.75-49.809-22.667-75.859z"/><path d="m490.708 739.804c-12 24.067-20.75 48.754-22.291 75.159-1.417 9.712 4.458 9.875 5.375 3.033 16.958-64.971 107.333-47.375 104.208 13.737-2.5 49.563-51.75 60.225-77.417 44.017-10.125-5.971-9.541-2.392-4.041 3.8 38.166 42.546 15.041 97.342-36.5 98.342-55.75-3.304-70.209-61.954-36-96.45 4.25-4.142 13.666-17.463-.5-8.15-34.542 24.533-82.459-1.846-81.5-39.671 1.833-69.746 86.833-74.946 105.041-16.692 1.75 6.459 6.792 9.704 5.375-1.266-2.5-19.863-7.708-49.805-22.666-75.859z"/><path d="m281.583 945.221c-11.958 24.062-20.708 48.754-22.25 75.159-1.416 9.71 4.459 9.87 5.334 3.03 17-64.968 107.375-47.377 104.25 13.74-2.5 49.56-51.75 60.22-77.417 44.02-10.125-5.97-9.583-2.4-4.042 3.79 38.167 42.55 15.042 97.34-36.5 98.35-55.75-3.31-70.208-61.96-36-96.46 4.25-4.14 13.667-17.46-.541-8.15-34.5 24.54-82.417-1.84-81.459-39.67 1.792-69.742 86.834-74.942 105-16.68 1.75 6.45 6.792 9.7 5.417-1.27-2.542-19.86-7.75-49.809-22.667-75.859z"/><path d="m874.373 993.686c-4.967 10.204-9.8 19.664-12.438 30.834-1.745 10.54 1.83 6.62 3.859-.29 3.004-9.54 11.341-13.92 19.083-14 14.046-.21 21.05 10.83 20.617 22.71 1.533 12.5-11.129 21.33-20.675 20.66-7.179-.54-13.434-4.41-17.221-7.41-2.483-1.34-5.142-1.88-1.438 1.5 6.992 7.62 12.821 12.33 12.692 23.79-.121 10.75-9.308 21.96-21.479 21.58-15.217-.42-22.133-12.04-22.1-22.83.042-7.84 3.975-15.09 10.05-19.59 3.933-3.2 2.829-5.58-1.658-2.54-4.313 3.71-9.446 5.34-14.771 5.46-14.542.21-20.229-12.37-19.396-24.04.779-10.92 10.096-22.21 22.371-20.92 10.962 1.25 16.721 10.46 20.021 19.92 1.091 2.87 2.816 3.67 2.77-.67-2.533-21.04-10.383-34.164-10.441-34.164z"/><path d="m60.608 314.157c5-10.192 9.833-19.671 12.458-30.838 1.75-10.533-1.833-6.621-3.875.283-3 9.571-11.333 13.934-19.083 14.038-14.042.187-21.042-10.854-20.584-22.725-1.541-12.496 11.125-21.333 20.667-20.654 7.167.512 13.417 4.383 17.208 7.396 2.5 1.312 5.125 1.895 1.417-1.492-6.958-7.638-12.792-12.35-12.667-23.796.125-10.746 9.292-21.95 21.459-21.6 15.25.442 22.166 12.042 22.125 22.838-.042 7.866-4 15.108-10.042 19.591-3.958 3.192-2.833 5.584 1.625 2.563 4.333-3.717 9.458-5.342 14.792-5.459 14.541-.225 20.208 12.342 19.375 24.017-.75 10.942-10.084 22.204-22.375 20.929-10.959-1.258-16.709-10.458-20-19.904-1.084-2.896-2.834-3.679-2.75.638 2.5 21.07 10.375 34.183 10.416 34.17z"/></g></svg>

<?xml version="1.0" encoding="UTF-8" standalone="no"?>
<!DOCTYPE svg PUBLIC "-//W3C//DTD SVG 1.1//EN" "http://www.w3.org/Graphics/SVG/1.1/DTD/svg11.dtd">
<svg width="100%" height="100%" viewBox="0 0 934 1300" version="1.1" xmlns="http://www.w3.org/2000/svg" xmlns:xlink="http://www.w3.org/1999/xlink" xml:space="preserve" xmlns:serif="http://www.serif.com/" style="fill-rule:evenodd;clip-rule:evenodd;stroke-linejoin:round;stroke-miterlimit:2;">
    <g>
        <path d="M32.513,156.849C33.177,138.622 39.889,131.773 53.11,122.239C42.573,114.75 38.12,103.749 39.023,94.366C41.193,71.674 59.069,60.321 78.537,60.81C98.019,61.312 114.815,76.491 116.12,92.986C117.262,107.337 112.909,114.249 102.547,121.8C114.853,131.974 122.718,138.672 122.417,156.636C122.116,174.599 106.561,195.975 79.441,196.627C52.32,197.279 31.848,175.088 32.513,156.849ZM108.23,156.912C109.396,140.403 94.531,129.264 77.76,129.101C61.415,128.926 46.8,142.624 46.8,157.439C46.8,173.37 65.805,182.013 78.098,182.063C93.013,182.113 107.226,171.137 108.23,156.912ZM102.873,97.853C103.187,83.954 90.128,73.982 76.668,74.383C64.689,74.747 51.994,83.729 51.981,95.345C51.981,109.896 66.407,117.146 78.726,117.422C89.89,117.673 102.622,108.365 102.873,97.853Z" style="fill-rule:nonzero;"/>
        <path d="M902.468,1143.15C901.804,1161.38 895.092,1168.23 881.871,1177.77C892.408,1185.25 896.861,1196.26 895.958,1205.63C893.788,1228.33 875.925,1239.68 856.444,1239.19C836.962,1238.69 820.166,1223.51 818.861,1207.02C817.719,1192.67 822.072,1185.76 832.434,1178.2C820.128,1168.03 812.263,1161.33 812.564,1143.37C812.865,1125.41 828.42,1104.04 855.54,1103.38C882.661,1102.72 903.133,1124.92 902.468,1143.15ZM826.751,1143.09C825.585,1159.6 840.45,1170.74 857.221,1170.91C873.566,1171.08 888.181,1157.38 888.181,1142.56C888.181,1126.64 869.163,1117.99 856.883,1117.94C841.968,1117.89 827.742,1128.87 826.751,1143.09ZM832.108,1202.14C831.794,1216.05 844.853,1226.02 858.313,1225.62C870.292,1225.26 882.987,1216.28 882.987,1204.65C883.012,1190.11 868.561,1182.85 856.255,1182.58C845.091,1182.33 832.359,1191.64 832.108,1202.14Z" style="fill-rule:nonzero;"/>
        <path d="M651.75,354.779C663.708,330.713 672.458,306.025 674,279.621C675.417,269.908 669.542,269.746 668.667,276.588C651.667,341.558 561.292,323.963 564.417,262.85C566.917,213.292 616.167,202.629 641.833,218.833C651.958,224.804 651.417,221.225 645.875,215.033C607.708,172.488 630.833,117.692 682.375,116.692C738.125,119.996 752.583,178.65 718.375,213.142C714.125,217.288 704.708,230.604 718.917,221.292C753.417,196.758 801.333,223.138 800.375,260.963C798.583,330.708 713.542,335.908 695.375,277.654C693.625,271.196 688.583,267.95 689.958,278.921C692.5,298.783 697.708,328.725 712.625,354.779L651.75,354.779Z" style="fill-rule:nonzero;"/>
        <path d="M651.75,772.479C663.708,748.417 672.458,723.725 674,697.325C675.417,687.608 669.542,687.446 668.667,694.287C651.667,759.258 561.292,741.667 564.417,680.554C566.917,630.992 616.167,620.329 641.833,636.533C651.958,642.504 651.417,638.929 645.875,632.733C607.708,590.187 630.833,535.396 682.375,534.392C738.125,537.696 752.583,596.35 718.375,630.842C714.125,634.987 704.708,648.308 718.917,638.996C753.417,614.462 801.333,640.837 800.375,678.662C798.583,748.408 713.542,753.612 695.375,695.354C693.625,688.896 688.583,685.654 689.958,696.621C692.5,716.483 697.708,746.429 712.625,772.479L651.75,772.479Z" style="fill-rule:nonzero;"/>
        <path d="M220.333,772.479C232.333,748.417 241.083,723.725 242.625,697.325C244.042,687.608 238.167,687.446 237.25,694.287C220.292,759.258 129.917,741.667 133.042,680.554C135.542,630.992 184.75,620.329 210.458,636.533C220.583,642.504 220,638.929 214.5,632.733C176.333,590.187 199.417,535.396 251,534.392C306.75,537.696 321.208,596.35 287,630.842C282.75,634.987 273.333,648.308 287.5,638.996C322.042,614.462 369.958,640.837 369,678.662C367.167,748.408 282.167,753.612 263.958,695.354C262.208,688.896 257.167,685.654 258.583,696.621C261.083,716.483 266.333,746.429 281.25,772.479L220.333,772.479Z" style="fill-rule:nonzero;"/>
        <path d="M429.417,563.629C441.417,539.563 450.167,514.875 451.708,488.475C453.167,478.758 447.25,478.596 446.375,485.438C429.375,550.408 339,532.813 342.125,471.704C344.625,422.142 393.875,411.479 419.542,427.683C429.667,433.654 429.125,430.079 423.583,423.883C385.417,381.337 408.542,326.542 460.083,325.542C515.833,328.846 530.292,387.5 496.083,421.992C491.833,426.137 482.417,439.454 496.625,430.142C531.125,405.608 579.042,431.987 578.083,469.812C576.292,539.558 491.25,544.758 473.083,486.504C471.333,480.046 466.292,476.8 467.667,487.771C470.208,507.633 475.417,537.579 490.333,563.629L429.417,563.629Z" style="fill-rule:nonzero;"/>
        <path d="M220.333,354.779C232.333,330.713 241.083,306.025 242.625,279.621C244.042,269.908 238.167,269.746 237.25,276.588C220.292,341.558 129.917,323.963 133.042,262.85C135.542,213.292 184.75,202.629 210.458,218.833C220.583,224.804 220,221.225 214.5,215.033C176.333,172.488 199.417,117.692 251,116.692C306.75,119.996 321.208,178.65 287,213.142C282.75,217.288 273.333,230.604 287.5,221.292C322.042,196.758 369.958,223.138 369,260.963C367.167,330.708 282.167,335.908 263.958,277.654C262.208,271.196 257.167,267.95 258.583,278.921C261.083,298.783 266.333,328.725 281.25,354.779L220.333,354.779Z" style="fill-rule:nonzero;"/>
        <path d="M713,945.221C701,969.283 692.25,993.975 690.708,1020.38C689.292,1030.09 695.167,1030.25 696.083,1023.41C713.042,958.442 803.417,976.033 800.292,1037.15C797.792,1086.71 748.583,1097.37 722.875,1081.17C712.75,1075.2 713.333,1078.77 718.833,1084.96C757,1127.51 733.875,1182.3 682.333,1183.31C626.583,1180 612.125,1121.35 646.333,1086.85C650.583,1082.71 660,1069.39 645.833,1078.7C611.292,1103.24 563.375,1076.86 564.333,1039.03C566.167,969.288 651.167,964.088 669.375,1022.35C671.125,1028.8 676.125,1032.05 674.75,1021.08C672.25,1001.22 667,971.271 652.083,945.221L713,945.221Z" style="fill-rule:nonzero;"/>
        <path d="M490.708,739.804C478.708,763.871 469.958,788.558 468.417,814.963C467,824.675 472.875,824.838 473.792,817.996C490.75,753.025 581.125,770.621 578,831.733C575.5,881.296 526.25,891.958 500.583,875.75C490.458,869.779 491.042,873.358 496.542,879.55C534.708,922.096 511.583,976.892 460.042,977.892C404.292,974.588 389.833,915.938 424.042,881.442C428.292,877.3 437.708,863.979 423.542,873.292C389,897.825 341.083,871.446 342.042,833.621C343.875,763.875 428.875,758.675 447.083,816.929C448.833,823.388 453.875,826.633 452.458,815.663C449.958,795.8 444.75,765.858 429.792,739.804L490.708,739.804Z" style="fill-rule:nonzero;"/>
        <path d="M281.583,945.221C269.625,969.283 260.875,993.975 259.333,1020.38C257.917,1030.09 263.792,1030.25 264.667,1023.41C281.667,958.442 372.042,976.033 368.917,1037.15C366.417,1086.71 317.167,1097.37 291.5,1081.17C281.375,1075.2 281.917,1078.77 287.458,1084.96C325.625,1127.51 302.5,1182.3 250.958,1183.31C195.208,1180 180.75,1121.35 214.958,1086.85C219.208,1082.71 228.625,1069.39 214.417,1078.7C179.917,1103.24 132,1076.86 132.958,1039.03C134.75,969.288 219.792,964.088 237.958,1022.35C239.708,1028.8 244.75,1032.05 243.375,1021.08C240.833,1001.22 235.625,971.271 220.708,945.221L281.583,945.221Z" style="fill-rule:nonzero;"/>
        <path d="M874.373,993.686C869.406,1003.89 864.573,1013.35 861.935,1024.52C860.19,1035.06 863.765,1031.14 865.794,1024.23C868.798,1014.69 877.135,1010.31 884.877,1010.23C898.923,1010.02 905.927,1021.06 905.494,1032.94C907.027,1045.44 894.365,1054.27 884.819,1053.6C877.64,1053.06 871.385,1049.19 867.598,1046.19C865.115,1044.85 862.456,1044.31 866.16,1047.69C873.152,1055.31 878.981,1060.02 878.852,1071.48C878.731,1082.23 869.544,1093.44 857.373,1093.06C842.156,1092.64 835.24,1081.02 835.273,1070.23C835.315,1062.39 839.248,1055.14 845.323,1050.64C849.256,1047.44 848.152,1045.06 843.665,1048.1C839.352,1051.81 834.219,1053.44 828.894,1053.56C814.352,1053.77 808.665,1041.19 809.498,1029.52C810.277,1018.6 819.594,1007.31 831.869,1008.6C842.831,1009.85 848.59,1019.06 851.89,1028.52C852.981,1031.39 854.706,1032.19 854.66,1027.85C852.127,1006.81 844.277,993.686 844.219,993.686L874.373,993.686Z" style="fill-rule:nonzero;"/>
        <g id="path3458">
            <path d="M60.608,314.157C65.608,303.965 70.441,294.486 73.066,283.319C74.816,272.786 71.233,276.698 69.191,283.602C66.191,293.173 57.858,297.536 50.108,297.64C36.066,297.827 29.066,286.786 29.524,274.915C27.983,262.419 40.649,253.582 50.191,254.261C57.358,254.773 63.608,258.644 67.399,261.657C69.899,262.969 72.524,263.552 68.816,260.165C61.858,252.527 56.024,247.815 56.149,236.369C56.274,225.623 65.441,214.419 77.608,214.769C92.858,215.211 99.774,226.811 99.733,237.607C99.691,245.473 95.733,252.715 89.691,257.198C85.733,260.39 86.858,262.782 91.316,259.761C95.649,256.044 100.774,254.419 106.108,254.302C120.649,254.077 126.316,266.644 125.483,278.319C124.733,289.261 115.399,300.523 103.108,299.248C92.149,297.99 86.399,288.79 83.108,279.344C82.024,276.448 80.274,275.665 80.358,279.982C82.858,301.052 90.733,314.165 90.774,314.152L60.608,314.157Z" style="fill-rule:nonzero;"/>
        </g>
    </g>
</svg>
